X:744
T:Reel 744
M:4/4
K:Amix
L:1/8
CD|EA,A,F, G,2CD|EA, (3A,A,A, A2GA|EA, (3A,A,A,  (3EFG DC|B,A,G,A, B,CDB,:|A,C (3B,A,G, E2DB,|A,G,A,C GFED|ECA,B, CA, (3B,CD |GAGF DCB,A,|E>A (3A,A,A, E>D (3B,CD |EB,DB, G,B,D2|EB, (3B,A,G, ED (3B,CD |GAFG EA (3AGA |Bcdc AG (3GGA |GE (3FGA BGAG|GA (3BcB cABG|EDDC B,CDF|ED (3DCD E2 (3FGA |BG (3GFG AG (3GFG |AcBc AG (3GFG |AGEC B,A,G,B,|
